X:250
T:the Farewell
A:Wyresdale, Lancashire
B:H.S.J. Jackson, 1823
L:1/8
M:6/8
O:England
Z:Richard Robinson 
%%TranscriptionNotes:Some guesswork here owing to imperfect legibility
%%TUNEURL: http://www.leeds.ac.uk/music/Info/RRTuneBk/gettune/000005b8.html
%%ID:000005b8
K:D
d2A FAF | D2A FAF |  d2A     F/G/AF | BGE E3  | \
d2A FAF | D2A FAF | (B/c/dB) cec    | dAF D3  ::
ded faf | ece g2e | ded faf | ecA A3 | \
ded faf | ece gfg | agf edc | dAF D3 ::
